modules/material-icons/icons/linkedin-box.svg

<svg xmlns="http://www.w3.org/2000/svg" width="24" height="24"><path d="M19 19h-3v-5.3c0-.83-.67-1.5-1.5-1.5s-1.5.67-1.5 1.5V19h-3v-9h3v1.2c.5-.84 1.59-1.4 2.5-1.4 1.93 0 3.5 1.57 3.5 3.5M6.5 8.31a1.81 1.81 0 1 1 0-3.62 1.81 1.81 0 0 1 0 3.62M8 19H5v-9h3m12-8H4c-1.11 0-2 .89-2 2v16c0 1.1.9 2 2 2h16c1.1 0 2-.9 2-2V4a2 2 0 0 0-2-2z"/></svg>

<?xml version="1.0" encoding="UTF-8"?><!DOCTYPE svg PUBLIC "-//W3C//DTD SVG 1.1//EN" "http://www.w3.org/Graphics/SVG/1.1/DTD/svg11.dtd"><svg xmlns="http://www.w3.org/2000/svg" xmlns:xlink="http://www.w3.org/1999/xlink" version="1.1" width="24" height="24" viewBox="0 0 24 24"><path d="M19,19H16V13.7C16,12.87 15.33,12.2 14.5,12.2C13.67,12.2 13,12.87 13,13.7V19H10V10H13V11.2C13.5,10.36 14.59,9.8 15.5,9.8C17.43,9.8 19,11.37 19,13.3M6.5,8.31C5.5,8.31 4.69,7.5 4.69,6.5C4.69,5.5 5.5,4.69 6.5,4.69C7.5,4.69 8.31,5.5 8.31,6.5C8.31,7.5 7.5,8.31 6.5,8.31M8,19H5V10H8M20,2H4C2.89,2 2,2.89 2,4V20C2,21.1 2.9,22 4,22H20C21.1,22 22,21.1 22,20V4C22,2.89 21.1,2 20,2Z" /></svg>
